!!!!SEGMENT: pl-sa--230-a-vi-34--001_luna-georgius--litania-simphonia.krn
!!!cenid: 17xx:495
!!!COM: Luna, Georgius
!!!COM-rismid: pe41010079
!!!CDT:
!!!CNT:
!!!OTL: Litania – Simphonia
!!!PDT:
!!!AGN: Sacred; Mass
!!!SMS-siglum: PL-SA
!!!SMS-shelfmark: 230/A VI 34
!!!SMS-shelfwork: 001-001 M
!!!SMS-variant: Violino Imo: PL-SA 230/A VI 34:7
!!!SMS-altvar: Violino Imo: PL-SA 230/A VI 34:29
!!!NIFC-rismid: 1001070084
!!!URL-scan: http://bc.bdsandomierz.pl/dlibra/publication/1606/edition/1574/content
!!!ONB-nifc: UWAGA: części Litanii: Simphonia, Kirie, Pater de caelis, Sancta Maria, Mater Christi,
**kern	**kern	**kern	**kern	**kern	**kern	**kern
*part7	*part6	*part5	*part4	*part3	*part2	*part1
*staff7	*staff6	*staff5	*staff4	*staff3	*staff2	*staff1
*group4	*group3	*group3	*group2	*group2	*group1	*group1
*I"Fundamento	*I"Violino 2do.	*I"Violino 1mo	*I"Tenore	*I"Canto	*I"Clarino 2do ex C	*I"Clarino 1mo ex C
*I'Fun	*I'vl II	*I'vl I	*I'T	*I'S	*I'cl II	*I'cl I
*clefF4	*clefG2	*clefG2	*clefC4	*clefC1	*clefG2	*clefG2
*k[]	*k[]	*k[]	*k[]	*k[]	*k[]	*k[]
*M4/4	*M4/4	*M4/4	*M4/4	*M4/4	*M4/4	*M4/4
*met(c)	*met(c)	*met(c)	*met(c)	*met(c)	*met(c)	*met(c)
=1	=1	=1	=1	=1	=1	=1
!	!LO:TX:a:t=P:problem:8\right:global	!LO:TX:a:t=P:problem:8\right:global	!	!	!LO:TX:a:t=Simphoe	!LO:TX:a:t=Simphoe
!	!LO:TX:b:t=Simpho	!LO:TX:b:t=Simpho	!	!	!LO:TX:a:t=allo n(on) molto	!LO:TX:a:t=P:problem:4\right:global
!LO:TX:a:t=allo n(on) molto	!LO:TX:a:t=allo n(on) molto	!LO:TX:a:t=allo n(on) mol	!LO:TX:a:t=Sinfonia Tacet	!LO:TX:a:t=Simphoni Tacet	!LO:TX:a:t=P:problem:4\right:global	!LO:TX:a:t=allo n(on) molto
4C/	8cc\L	8cc\L	1ryy	1ryy	4cc\	4ee\
.	8ee\	8ccc\	.	.	.	.
!LO:TX:a:t=P:problem:4\right:global	!	!	!	!	!	!
4G\	8b\	8dd\	.	.	4g/	4ddM\
.	8dd\J	8bb\J	.	.	.	.
!	!LO:TX:a:t=P:problem:4\right:global	!LO:TX:a:t=P:problem:4\right:global	!	!	!	!
4C/	4ee\	4ccc\	.	.	4cc\	4ee\
4r	8r	8r	.	.	4r	4r
!	!LO:TX:a:t=P:problem:32\right:global	!LO:TX:a:t=P:problem:32\right:global	!	!	!	!
.	(32gg\LLL	(32gg\LLL	.	.	.	.
.	32ff\	32ff\	.	.	.	.
.	32ee\	32ee\	.	.	.	.
.	32dd\JJJ)	32dd\JJJ)	.	.	.	.
=2	=2	=2	=2	=2	=2	=2
8C/L	8cc\	8cc/	1ryy	1ryy	4ee\	4gg\
8C/	(32g/LLL	(32g/LLL	.	.	.	.
.	32f/	32f/	.	.	.	.
.	32e/	32e/	.	.	.	.
.	32d/JJJ)	32d/JJJ)	.	.	.	.
!	!LO:TX:a:t=P:problem:mixed beam	!LO:TX:a:t=P:problem:mixed beam	!	!	!	!
8C/	8c/L	8c/L	.	.	4r	4r
8C/J	8ff\J	8aa\J	.	.	.	.
!	!LO:TX:a:t=P:problem:16\right:global	!LO:TX:a:t=P:problem:16\right:global	!	!	!	!
8C/L	16ffM\LL	(16aa\LL	.	.	8r	8r
.	16dd\J	16ff\J	.	.	.	.
!	!	!	!	!	!LO:TX:a:t=P:problem:16\right:global	!LO:TX:a:t=P:problem:16\right:global
8C/	8ee\J	8gg\J)	.	.	16ee\LL	16gg\LL
.	.	.	.	.	16ee\JJ	16gg\JJ
8C/	8r	8r	.	.	4ee\	4ggM\
8C/J	8ee\	8ccc\	.	.	.	.
=3	=3	=3	=3	=3	=3	=3
!LO:TX:a:t=P:problem:8\right:global	!	!	!	!	!	!
8G\L	16ee\LL	(16ccc\LL	1ryy	1ryy	8r	8r
.	16cc\J	16aa\J)	.	.	.	.
8G\	8dd\J	8bb\J	.	.	16g/LL	16dd\LL
.	.	.	.	.	16g/JJ	16dd\JJ
8G\	8r	8r	.	.	4g/	4dd\
8G\J	16ff\LL	16ddd\LL	.	.	.	.
.	16dd\JJ	16ff\JJ	.	.	.	.
8C/L	8dd\L	8ffM\L	.	.	8r	8r
8C/	8cc\J	8ee\J	.	.	16cc\LL	16ee\LL
.	.	.	.	.	16cc\JJ	16ee\JJ
8C/	8r	8r	.	.	4cc\	4eem\
8C/J	(32cc\LLL	(32cc\LLL	.	.	.	.
.	32dd\	32dd\	.	.	.	.
.	32ee\	32ee\	.	.	.	.
.	32ff\JJJ)	32ff\JJJ)	.	.	.	.
=4	=4	=4	=4	=4	=4	=4
8C/L	8ee\L	16gg\LL	1ryy	1ryy	4ee\	4gg\
.	.	16ee\J	.	.	.	.
8C/	8ee\	8cc\J	.	.	.	.
8C/	8ee\	16gg\LL	.	.	8r	8r
.	.	16ee\	.	.	.	.
!	!	!	!	!	!LO:TX:a:t=P:problem:8\right:global	!LO:TX:a:t=P:problem:8\right:global
8C/J	8ff\J	16ccc\	.	.	8ff\	8aa\
.	.	16aa\JJ	.	.	.	.
8C/L	8ee\L	16gg\LL	.	.	4ee\	4gg\
.	.	16ee\J	.	.	.	.
8C/	8ee\	8cc\J	.	.	.	.
8C/	8ee\	16gg\LL	.	.	8r	8r
.	.	16ee\	.	.	.	.
8C/J	8ff\J	16ccc\	.	.	8ff\	8aa\
.	.	16aa\JJ	.	.	.	.
=5	=5	=5	=5	=5	=5	=5
8E\L	8.ggM\L	8.ggM\L	1ryy	1ryy	4ee\	4gg\
8E\	.	.	.	.	.	.
.	(32ff\LL	32ff\LL	.	.	.	.
.	32gg\JJJ)	32gg\JJJ	.	.	.	.
8F\	8aa\L	8aa\L	.	.	4r	4r
8F\J	8cc\J	8cc\J	.	.	.	.
!LO:TX:a:t=P:problem:mixed beam	!	!LO:LB:g=original	!	!	!	!
8G\L	8cc\L	8cc\L	.	.	8r	8r
8GG/	8b\	8b\J	.	.	16g/LL	16dd\LL
.	.	.	.	.	16g/JJ	16dd\JJ
8G\	8b\	16g/LL	.	.	4g/	4ddM\
.	.	16a/	.	.	.	.
8G\J	8b\J	16b/	.	.	.	.
.	.	16cc/JJ	.	.	.	.
!	!LO:LB:g=original	!	!	!	!	!
=6	=6	=6	=6	=6	=6	=6
8G\L	8b\L	16dd\LL	1ryy	1ryy	4g/	4dd\
.	.	16b\J	.	.	.	.
8G\	8b\J	8g\J	.	.	.	.
8G\	8dd\L	8ff\L	.	.	4r	4r
8G\J	16cc\L	16ee\L	.	.	.	.
.	16b\JJ	16dd\JJ	.	.	.	.
8G\L	16e/LL	16cc\LL	.	.	4cc\	4ee\
.	16c/J	16b\J	.	.	.	.
8G\	8d/J	8cc\J	.	.	.	.
8G\	8e/L	16g\LL	.	.	4r	4r
.	.	16b\	.	.	.	.
8G\J	8e/J	16cc\	.	.	.	.
.	.	16dd\JJ	.	.	.	.
!LO:LB:g=original	!	!	!	!	!	!
=7	=7	=7	=7	=7	=7	=7
8G\L	8e/L	16ee\LL	1ryy	1ryy	4cc\	4ee\
.	.	16cc\J	.	.	.	.
8G\	8e/J	8g\J	.	.	.	.
8G\	8ee\L	8gg\L	.	.	4r	4r
8G\J	16dd\L	16ff\L	.	.	.	.
.	16cc\JJ	16ee\JJ	.	.	.	.
8G\L	16b/LL	16dd\LL	.	.	4g/	4dd\
.	16a/J	16cc\J	.	.	.	.
8G\	8b/J	8dd\J	.	.	.	.
8G\	8b/L	16b\LL	.	.	4r	4r
.	.	16cc\	.	.	.	.
8G\J	8b/J	16dd\	.	.	.	.
.	.	16ee\JJ	.	.	.	.
=8	=8	=8	=8	=8	=8	=8
8G\L	8dd\L	16ff\LL	1ryy	1ryy	4g/	4dd\
.	.	16dd\J	.	.	.	.
8G\	8dd\J	8b\J	.	.	.	.
!	!	!	!	!	!LO:SIC:t=custos na końcu linijki:cc	!
8G\	8ff\L	8aa\L	.	.	4r	4r
8G\J	16ee\L	16gg\L	.	.	.	.
.	16dd\JJ	16ff\JJ	.	.	.	.
!	!	!	!	!	!LO:LB:g=original	!
8C/L	16cc\LL	16ee\LL	.	.	4cc\	4ee\
.	(16cc\	16cc\	.	.	.	.
8C/	16b\	16b\	.	.	.	.
.	16cc\JJ)	16cc\JJ	.	.	.	.
8AA/	16cc\LL	16cc\LL	.	.	4r	4r
.	(16cc\	16cc\	.	.	.	.
8AA/J	16b\	16b\	.	.	.	.
.	16cc\JJ)	16cc\JJ	.	.	.	.
=9	=9	=9	=9	=9	=9	=9
8D\L	4.ff#Xm\	4.ff#Xm\	1ryy	1ryy	8r	8r
!LO:TX:a:t=P:problem:16\right:global	!	!	!	!	!	!
16A\L	.	.	.	.	8dd\L	8dd\L
16G\JJ	.	.	.	.	.	.
16F#X\LL	.	.	.	.	8dd\	8dd\
16E\	.	.	.	.	.	.
16D\	16ee\LL	(16ee\LL	.	.	8dd\J	8dd\J
16C\JJ	16ff#\JJ	16ff#\JJ)	.	.	.	.
!LO:TX:a:t=P:problem:mixed beam	!LO:TX:a:t=P:problem:mixed beam	!LO:TX:a:t=P:problem:mixed beam	!	!	!	!
8BB/L	8gg\L	8gg\L	.	.	4g/	4dd\
8B\	8g/J	8g/J	.	.	.	.
8d\	8.ff#m\L	8.ff#m\L	.	.	8dd\L	8dd\L
8c\J	.	.	.	.	8dd\J	8dd\J
.	32ee\LL	32ee\LL	.	.	.	.
.	32ff#\JJJ	32ff#\JJJ	.	.	.	.
!	!	!	!	!	!	!LO:LB:g=original
=10	=10	=10	=10	=10	=10	=10
8B\L	16gg\LL	16gg\LL	1ryy	1ryy	4g/	4dd\
.	16bb\	16bb\	.	.	.	.
8A\	16aa\	16aa\	.	.	.	.
.	16gg\JJ	16gg\JJ	.	.	.	.
8B\	16ff#X\LL	16ff#X\LL	.	.	4r	4r
.	16ee\	16ee\	.	.	.	.
8c\J	16dd\	16dd\	.	.	.	.
.	16cc\JJ	16cc\JJ	.	.	.	.
!LO:TX:a:t=P:problem:mixed beam	!	!LO:LB:g=original	!	!	!	!
!	!LO:TUP:b	!LO:TUP:b	!	!	!	!
!	!LO:TX:a:t=P:problem:klamra łukowa	!LO:TX:a:t=P:problem:klamra łukowa	!	!	!	!
8d\L	12b/L	12b/L	.	.	4dd\	4dd\
.	12a/	12a/	.	.	.	.
8d\	.	.	.	.	.	.
.	12g/J	12g/J	.	.	.	.
8D/	4aM/	4aM/	.	.	4dd\	4dd\
8D/J	.	.	.	.	.	.
=11	=11	=11	=11	=11	=11	=11
!	!	!LO:TX:a:t=P:problem:mixed beam	!	!	!	!
4G\	8g/L	8g/L	1ryy	1ryy	4g/	4dd\
.	8b/	8gg\	.	.	.	.
4D\	8f#X/	8a/	.	.	4dd\	4dd\
!	!LO:SIC:t=custos na końcu linijki:dd	!	!	!	!	!
.	8a/J	8ff#X\J	.	.	.	.
!	!LO:LB:g=original	!	!	!	!	!
4GG/	4b\	4gg\	.	.	4g/	4dd\
4r	8r	8r	.	.	4r	4r
.	(32dd\LLL	(32dd/LLL	.	.	.	.
.	32cc\	32cc/	.	.	.	.
.	32b\	32b/	.	.	.	.
.	32a\JJJ)	32a/JJJ)	.	.	.	.
=12	=12	=12	=12	=12	=12	=12
8G\L	8g/	8g/	1ryy	1ryy	4g/	4dd\
8G\	(32d/LLL	32d/LLL	.	.	.	.
.	32c/	(32c/	.	.	.	.
.	32B/	32B/	.	.	.	.
.	32A/JJJ)	32A/JJJ)	.	.	.	.
!	!LO:TX:a:t=P:problem:mixed beam	!LO:TX:a:t=P:problem:mixed beam	!	!	!	!
8G\	8G/L	8G/L	.	.	4r	4r
8G\J	8cc\J	8ee\J	.	.	.	.
8G\L	16cc\LL	(16ee\LL	.	.	8r	8r
.	16a\J	16cc\J)	.	.	.	.
8G\	8b\J	8dd\J	.	.	16g/LL	16dd\LL
.	.	.	.	.	16g/JJ	16dd\JJ
8G\	8r	8r	.	.	4g/	4dd\
8G\J	8b\	8gg\	.	.	.	.
!LO:LB:g=original	!	!	!	!	!	!
=13	=13	=13	=13	=13	=13	=13
8D\L	(16b/LL	16gg\LL	1ryy	1ryy	8r	8r
.	16g/J)	16ee\J	.	.	.	.
8D\	8a/J	8ff#X\J	.	.	16dd\LL	16dd\LL
.	.	.	.	.	16dd\JJ	16dd\JJ
8D\	8r	8r	.	.	4dd\	4dd\
8D\J	16cc\LL	16aa\LL	.	.	.	.
.	16a\JJ	16cc\JJ	.	.	.	.
8G\L	8a/L	8cc\L	.	.	8r	8r
8G\	8g/J	8b\J	.	.	16g/LL	16dd\LL
.	.	.	.	.	16g/JJ	16dd\JJ
8G\	8r	8r	.	.	4g/	4dd\
8G\J	(32g/LLL	(32g/LLL	.	.	.	.
.	32a/	32a/	.	.	.	.
.	32b/	32b/	.	.	.	.
.	32cc/JJJ)	32cc/JJJ)	.	.	.	.
=14	=14	=14	=14	=14	=14	=14
8G\L	8b\L	16dd\LL	1ryy	1ryy	4g/	4dd\
.	.	16b\J	.	.	.	.
8G\	8b\	8g\J	.	.	.	.
8G\	8b\	16dd\LL	.	.	8r	8r
.	.	16b\	.	.	.	.
8G\J	8cc\J	16gg\	.	.	8cc\	8ee\
.	.	16ee\JJ	.	.	.	.
8G\L	8b\L	16dd\LL	.	.	4g/	4dd\
.	.	16b\J	.	.	.	.
8G\	8b\	8g\J	.	.	.	.
8G\	8b\	16dd\LL	.	.	8r	8r
.	.	16b\	.	.	.	.
8G\J	8cc\J	16gg\	.	.	8cc\	8ee\
.	.	16ee\JJ	.	.	.	.
!	!	!LO:LB:g=original	!	!	!	!
=15	=15	=15	=15	=15	=15	=15
8BB/L	8.ddM\L	8dd\LM	1ryy	1ryy	4g/	4dd\
8BB/	.	16cc\L	.	.	.	.
.	(32cc\LL	16dd\JJ	.	.	.	.
.	32dd\JJJ)	.	.	.	.	.
!	!LO:TX:a:t=P:problem:mixed beam	!LO:TX:a:t=P:problem:mixed beam	!	!	!	!
8C/	8ee\L	8ee\L	.	.	4r	4r
8C/J	8g/J	8g/J	.	.	.	.
8D\L	8g/L	8g/L	.	.	8r	8r
8D\	8f#X/	8f#X/J	.	.	16dd\LL	16dd\LL
.	.	.	.	.	16dd\JJ	16dd\JJ
8D\	8f#/	16d/LL	.	.	4dd\	4dd\
.	.	16e/	.	.	.	.
8D\J	8f#/J	16f#X/	.	.	.	.
.	.	16g/JJ	.	.	.	.
=16	=16	=16	=16	=16	=16	=16
!	!LO:SIC:s=f#	!	!	!	!	!
8D\L	8f/L	16a/LL	1ryy	1ryy	4dd\	4dd\
!	!	!LO:SIC:s=f#	!	!	!	!
.	.	16f/J	.	.	.	.
!	!LO:SIC:s=f#	!	!	!	!	!
8D\	8f/J	8d/J	.	.	.	.
8D\	8a/L	8cc\L	.	.	4r	4r
8D\J	16g/L	16b\L	.	.	.	.
!	!LO:SIC:t=custos na końcu linijki:a	!	!	!	!	!
!	!LO:SIC:s=f#	!	!	!	!	!
.	16f/JJ	16a\JJ	.	.	.	.
!	!LO:LB:g=original	!	!	!	!	!
8D\L	8g/L	16g/LL	.	.	4g/	4dd\
.	.	16f#X/J	.	.	.	.
!	!LO:SIC:s=f#	!	!	!	!	!
8D\	16f/L	8g/J	.	.	.	.
.	16g/JJ	.	.	.	.	.
8D\	8g/L	16d/LL	.	.	4r	4r
.	.	16f#X/	.	.	.	.
8D\J	8g/J	16g/	.	.	.	.
.	.	16a/JJ	.	.	.	.
=17	=17	=17	=17	=17	=17	=17
8D\L	4g/	16b/LL	1ryy	1ryy	4g/	4dd\
.	.	16g/J	.	.	.	.
8D\	.	8d/J	.	.	.	.
!	!	!	!	!	!LO:SIC:t=custos na końcu linijki:cc	!
8D\	8b/L	8dd\L	.	.	4r	4r
8D\J	16a/L	16cc\L	.	.	.	.
.	16g/JJ	16b\JJ	.	.	.	.
!	!	!	!	!	!LO:LB:g=original	!
=	=-z	=-z	=-z	=-z	=-z	=-z
!LO:TX:a:t=P:problem: błędna kreska taktowa przed nutą	!	!	!	!	!	!
8D\L	16f#X/LL	16a/LL	.	.	4dd\	4dd\
.	16e/J	16g/J	.	.	.	.
8D\	8f#/J	8a/J	.	.	.	.
8D\	8f#/L	16f#X/LL	.	.	4r	4r
.	.	16g/	.	.	.	.
8D\J	8f#/J	16a/	.	.	.	.
.	.	16b/JJ	.	.	.	.
=18	=18	=18	=18	=18	=18	=18
!	!LO:SIC:s=f#	!	!	!	!	!
8D\L	8f/L	16cc/LL	1ryy	1ryy	4dd\	4dd\
.	.	16a/J	.	.	.	.
8D\	8a/J	8f#X/J	.	.	.	.
8D\	8cc\L	8ee\L	.	.	4r	4r
8D\J	16b\L	16dd\L	.	.	.	.
.	16a\JJ	16cc\JJ	.	.	.	.
8G\L	16g/LL	16b/LL	.	.	4g/	4dd\
.	16a/	16g/	.	.	.	.
8D\J	16b/	16a/	.	.	.	.
.	16cc/JJ	16b/JJ	.	.	.	.
8BB/L	16dd\LL	16cc\LL	.	.	4r	4r
.	16ee\	16dd\	.	.	.	.
!	!LO:TX:a:t=P:problem:# nad nutą	!	!	!	!	!
8GG/J	16ff#X\	16ee\	.	.	.	.
.	16gg\JJ	16ff#X\JJ	.	.	.	.
=19	=19	=19	=19	=19	=19	=19
!	!	!LO:TX:a:t=P:problem:mixed beam	!	!	!	!
8GG/L	8gg\L	8gg\L	1ryy	1ryy	8r	8r
8GG/	8b\	8g/J	.	.	8g/L	8dd\L
!	!	!LO:SIC:t=custos na końcu linijki:dd	!	!	!	!
8AA/	8cc\	4ffn\	.	.	8g/	8dd\
8BB/J	8dd\J	.	.	.	8g/J	8dd\J
!	!	!LO:LB:g=original	!	!	!	!LO:LB:g=original
8C/L	16cc\LL	16ee\LL	.	.	4cc\	4ee\
.	16cc\	16cc\	.	.	.	.
8C/	16dd\	16dd\	.	.	.	.
.	16ee\JJ	16ee\JJ	.	.	.	.
8E/	16ffn\LL	16ff\LL	.	.	4r	4r
.	16gg\	16gg\	.	.	.	.
8C/J	16aa\	16aa\	.	.	.	.
.	16bb\JJ	16bb\JJ	.	.	.	.
!LO:LB:g=original	!	!	!	!	!	!
=20	=20	=20	=20	=20	=20	=20
8C/L	8ccc\L	8ccc\L	1ryy	1ryy	4cc\	4ee\
8C/	8ee\	8cc\J	.	.	.	.
8D/	8ff\	4bb-X\	.	.	4r	4r
8E/J	8gg\J	.	.	.	.	.
8F\L	(16gg\LL	16bb-\LL	.	.	8r	8r
.	16ee\JJ)	16aa\JJ	.	.	.	.
8F\	4.ff\	[4.aa\	.	.	8ff\L	8aa\L
8F\	.	.	.	.	8ff\	8aa\
8F\J	.	.	.	.	8ff\J	8aa\J
=21	=21	=21	=21	=21	=21	=21
!LO:TX:a:t=P:problem:mixed beam	!	!	!	!	!	!
8c\L	(16ff\LL	16aa\LL]	1ryy	1ryy	8r	8r
.	16dd\JJ)	16ff\JJ	.	.	.	.
!	!LO:N:vis=4	!	!	!	!	!
8C/	4.ee\	4.gg\	.	.	8ee\L	8gg\L
8C/	.	.	.	.	8ee\	8gg\
8C/J	.	.	.	.	8ee\J	8gg\J
8G\L	(16ee\LL	16gg\LL	.	.	8r	8r
!	!LO:SIC:t=custos na końcu linijki:	!	!	!	!	!
.	16cc\JJ)	16ee\JJ	.	.	.	.
!	!LO:LB:g=original	!	!	!	!	!
8G\	4.dd\	[<4.ff\	.	.	8dd\L	8ff\L
8G\	.	.	.	.	8dd\	8ff\
8G\J	.	.	.	.	8dd\J	8ff\J
=22	=22	=22	=22	=22	=22	=22
8C/L	16dd\LL	16ff\LL]	1ryy	1ryy	8r	8r
.	16b\JJ	16dd\JJ	.	.	.	.
8C/	4cc\	4ee\	.	.	8cc\L	8ee\L
8C/	.	.	.	.	8cc\	8ee\
8C/J	8cc\	8ee\	.	.	8cc\J	8ee\J
!LO:TX:a:t=P:problem:mixed beam	!	!	!	!	!	!
8G\L	8cc\L	8ee\L	.	.	8cc/L	8ee\L
8GG/J	8b\J	8dd\J	.	.	16g/L	16dd\L
.	.	.	.	.	16g/J	16dd\JJ
16G\LL	4r	4r	.	.	8g/	8dd\L
16F\	.	.	.	.	.	.
16E\	.	.	.	.	8g/J	8dd\J
16D\JJ	.	.	.	.	.	.
=23	=23	=23	=23	=23	=23	=23
4C/	8cc\L	8cc\L	1ryy	1ryy	4cc\	4ee\
.	8ee\	8ccc\	.	.	.	.
4G\	8b\	8dd\	.	.	4g/	4r
.	8dd\J	8bb\J	.	.	.	.
8C/L	4ee\	4ccc\	.	.	4cc\	4ee\
8C/	.	.	.	.	.	.
8C/	8r	8r	.	.	4r	4r
8C/J	(32gg\LLL	(32gg\LLL	.	.	.	.
.	32ff\	32ff\	.	.	.	.
.	32ee\	32ee\	.	.	.	.
.	32dd\JJJ)	32dd\JJJ)	.	.	.	.
=24	=24	=24	=24	=24	=24	=24
8C\L	8cc\	8cc\	1ryy	1ryy	4cc\	4ee\
8C\	(32g/LLL	(32g/LLL	.	.	.	.
.	32f/	32f/	.	.	.	.
.	32e/	32e/	.	.	.	.
.	32d/JJJ)	32d/JJJ)	.	.	.	.
!	!LO:TX:a:t=P:problem:mixed beam	!LO:TX:a:t=P:problem:mixed beam	!	!	!	!
8D\	8c/L	8c/L	.	.	4r	4r
8E\J	8gg\J	8bb-X\J	.	.	.	.
8F\L	16gg\LL	16bb-\LL	.	.	8r	8r
.	16ee\J	16gg#X\J	.	.	.	.
8C\J	8ff\J	8aa\J	.	.	8cc\L	16ff\LL
.	.	.	.	.	.	16ff\JJ
8AA/L	4r	4r	.	.	8cc\	4ff\
8FF/J	.	.	.	.	8cc\J	.
!	!	!LO:LB:g=original	!	!	!	!
=25	=25	=25	=25	=25	=25	=25
4D\	8dd\L	8dd\L	1ryy	1ryy	4dd\	4ff#X\
!	!LO:SIC:s=ff#	!	!	!	!	!
.	8ff\	8ddd\	.	.	.	.
4A\	8cc#X\	8ee\	.	.	4ee\	4ee\
.	8ee\J	8ccc#X\J	.	.	.	.
!	!LO:SIC:s=ff#	!	!	!	!	!
8D\L	4ff\	4ddd\	.	.	4dd\	4ff#\
8D\	.	.	.	.	.	.
8D\	8r	8r	.	.	4r	4r
8D\J	(32aa\LLL	(32aa\LLL	.	.	.	.
.	32gg\	32gg\	.	.	.	.
!	!LO:SIC:s=ff#	!	!	!	!	!
.	32ff\	32ff#X\	.	.	.	.
.	32ee\JJJ)	32ee\JJJ)	.	.	.	.
!LO:LB:g=original	!	!	!	!	!LO:LB:g=original	!
=26	=26	=26	=26	=26	=26	=26
8D\L	8dd\	8dd\	1ryy	1ryy	4dd\	4ff#X\
8D\	32a/LLL	32a/LLL	.	.	.	.
.	32g/	32g/	.	.	.	.
.	32f/	32f/	.	.	.	.
.	32e/JJJ	32e/JJJ	.	.	.	.
!	!LO:TX:a:t=P:problem:mixed beam	!LO:TX:a:t=P:problem:mixed beam	!	!	!	!
8E\	8d/L	8d/L	.	.	4r	4r
8F#X\J	8aa\J	8cccn\J	.	.	.	.
8G\L	16aa\LL	16ccc\LL	.	.	8r	8r
.	16ff#X\J	16aa\J	.	.	.	.
!	!LO:SIC:t=custos na końcu linijki:cc	!	!	!	!	!
8D\J	8gg\J	8bb\J	.	.	16dd\LL	16gg\LL
.	.	.	.	.	16dd\JJ	16gg\JJ
!	!LO:LB:g=original	!	!	!	!	!
8BB/L	8r	8r	.	.	4dd\	4gg\
8GG/J	8ffn\	8ddd\	.	.	.	.
=27	=27	=27	=27	=27	=27	=27
8G\L	(16ee\LL	(16ffn\LL	1ryy	1ryy	4dd\	4ggn\
.	16b\	16dd\	.	.	.	.
8C\	16cc\	16ee\	.	.	.	.
.	16ee\JJ)	16gg\JJ)	.	.	.	.
8E\	8ee\L	8ccc\L	.	.	8r	8r
8C\J	8cc\J	8ee\J	.	.	8cc\	8ee\
!LO:TX:a:t=P:problem:mixed beam	!	!	!	!	!	!
8G\L	8cc\L	8ee\L	.	.	8cc/L	8ee\L
8GG/J	8b\J	8dd\J	.	.	16g/L	16dd\L
.	.	.	.	.	16g/J	16dd\JJ
4GG/	8r	8r	.	.	8g/	4dd\
.	(32cc\LLL	(32cc\LLL	.	.	8g/J	.
.	32dd\	32dd\	.	.	.	.
.	32ee\	32ee\	.	.	.	.
.	32ff\JJJ)	32ff\JJJ)	.	.	.	.
!	!	!	!	!	!	!LO:LB:g=original
=28	=28	=28	=28	=28	=28	=28
8C/L	8ee\L	16gg\LL	1ryy	1ryy	4ee\	4gg\
.	.	16ee\J	.	.	.	.
8C/	8ee\	8cc\J	.	.	.	.
8C/	8ee\	16gg\LL	.	.	8r	8r
.	.	16ee\	.	.	.	.
8C/J	8ff\J	16ccc\	.	.	8ff\	8aa\
.	.	16aa\JJ	.	.	.	.
8C/L	8ee\L	16gg\LL	.	.	4ee\	4gg\
.	.	16ee\J	.	.	.	.
8C/	8ee\	8cc\J	.	.	.	.
8C/	8ee\	16gg\LL	.	.	8r	8r
.	.	16ee\	.	.	.	.
8C/J	8ff\J	16ccc\	.	.	8ff\	8aa\
.	.	16aa\JJ	.	.	.	.
=29	=29	=29	=29	=29	=29	=29
8E\L	8.ggM\L	8.ggM\L	1ryy	1ryy	4ee\	4gg\
8E\	.	.	.	.	.	.
.	32ff\LL	32ff\LL	.	.	.	.
.	32gg\JJJ	32gg\JJJ	.	.	.	.
8F\	8aa\L	8aa\L	.	.	4r	4r
8F\J	8cc\J	8cc\J	.	.	.	.
!LO:TX:a:t=P:problem:mixed beam	!	!	!	!	!	!
8G\L	8cc\L	8ccM\L	.	.	8r	8r
!	!	!LO:SIC:t=custos na końcu linijki:	!	!	!	!
8GG/	8b\	8b\J	.	.	16g/LL	16dd\LL
.	.	.	.	.	16g/J	16dd\JJ
!	!	!LO:LB:g=original	!	!	!	!
8G\	8b\	16g/LL	.	.	8g/	8dd\L
.	.	16b/	.	.	.	.
8G\J	8b\J	16cc/	.	.	8g/J	8dd\J
.	.	16dd/JJ	.	.	.	.
=30	=30	=30	=30	=30	=30	=30
8G\L	8b\L	(16dd\LL	1ryy	1ryy	4g/	4dd\
.	.	16b\J)	.	.	.	.
8G\	8b\J	8g\J	.	.	.	.
8G\	8dd\L	(16ff\LL	.	.	4r	4r
.	.	16ee\J)	.	.	.	.
8G\J	16cc\L	8dd\J	.	.	.	.
.	16b\JJ	.	.	.	.	.
.	8qqf/	.	.	.	.	.
8G\L	16e/LL	(16cc\LL	.	.	4cc\	4ee\
.	16d/J	16b\J)	.	.	.	.
8G\	8e/J	8cc\J	.	.	.	.
8G\	8e/L	16g/LL	.	.	4r	4r
.	.	16b/	.	.	.	.
8G\J	8e/J	16cc/	.	.	.	.
.	.	16dd/JJ	.	.	.	.
=31	=31	=31	=31	=31	=31	=31
8G\L	8e/L	16ee\LL	1ryy	1ryy	4cc\	4ee\
.	.	16cc\J	.	.	.	.
8G\	8e/J	8g\J	.	.	.	.
8G\	8ee\L	8gg\L	.	.	4r	4r
8G\J	16dd\L	16ff\L	.	.	.	.
.	16cc\JJ	16ee\JJ	.	.	.	.
8G\L	16b/LL	(16dd\LL	.	.	4g/	4dd\
.	16a/J	16cc\J)	.	.	.	.
8G\	8b/J	8dd\J	.	.	.	.
8G\	16g/LL	16b\LL	.	.	4r	4r
.	16a/	16cc\	.	.	.	.
8G\J	16b/	16dd\	.	.	.	.
.	16cc/JJ	16ee\JJ	.	.	.	.
!LO:LB:g=original	!LO:LB:g=original	!	!	!	!	!
=32	=32	=32	=32	=32	=32	=32
8G\L	16dd\LL	16ff\LL	1ryy	1ryy	4g/	4dd\
.	16b\J	16dd\J	.	.	.	.
8G\	8g\J	8b\J	.	.	.	.
8G\	8ff\L	8aa\L	.	.	4r	4r
8G\J	16ee\L	16gg\L	.	.	.	.
.	16dd\JJ	16ff\JJ	.	.	.	.
8C\L	16cc\LL	16ee\LL	.	.	4cc\	4ee\
.	16cc\	16cc\	.	.	.	.
8C\	16dd\	16dd\	.	.	.	.
.	16ee\JJ	16ee\JJ	.	.	.	.
8E\	16ff\LL	16ff\LL	.	.	4r	4r
.	16gg\	16gg\	.	.	.	.
8D\J	16aa\	16aa\	.	.	.	.
.	16bb\JJ	16bb\JJ	.	.	.	.
=33	=33	=33	=33	=33	=33	=33
8C/L	8ccc\L	8ccc\L	1ryy	1ryy	8r	8r
8E/	8cc\J	8cc\J	.	.	8cc\L	8ee\L
8C/	8.b\L	8.dd\L	.	.	8g\	8dd\
8GG/J	.	.	.	.	8g\J	8dd\J
.	(32cc\LL	(32ee\LL	.	.	.	.
.	32dd\JJJ)	32ff\JJJ)	.	.	.	.
!	!	!LO:TX:a:t=P:problem:mixed beam	!	!	!	!
16C/LL	16cc/LL	16ee\LL	.	.	4cc\	4ee\
32C/L	32c/L	32c/L	.	.	.	.
32D/JJJ	32d/JJJ	32d/JJJ	.	.	.	.
16E\LL	16e/LL	16e/LL	.	.	.	.
32E\L	32e/L	32e/L	.	.	.	.
32F\JJJ	32f/JJJ	32f/JJJ	.	.	.	.
16G\LL	16g/LL	16g/LL	.	.	4r	4r
32E\L	32e/L	32e/L	.	.	.	.
32F\JJJ	32f/JJJ	32f/JJJ	.	.	.	.
16G\LL	16g/LL	16g/LL	.	.	.	.
32A\L	32a/L	32a/L	.	.	.	.
32B\JJJ	32b/JJJ	32b/JJJ	.	.	.	.
!	!	!LO:LB:g=original	!	!	!	!
=34	=34	=34	=34	=34	=34	=34
!LO:TX:a:t=P:problem:mixed beam	!	!	!	!	!	!
8c\L	16cc\LL	16cc\LL	1ryy	1ryy	4cc\	4ee\
.	16cc\	16cc\	.	.	.	.
8C/	16dd\	16dd\	.	.	.	.
.	16ee\JJ	16ee\JJ	.	.	.	.
8E/	16ff\LL	16ff\LL	.	.	4r	4r
.	16gg\	16gg\	.	.	.	.
8D/J	16aa\	16aa\	.	.	.	.
.	16bb\JJ	16bb\JJ	.	.	.	.
8C/L	8ccc\L	8ccc\L	.	.	8r	8r
!	!	!	!	!	!LO:LB:g=original	!
8E/	8cc\J	8cc\J	.	.	8cc\L	8ee\L
8BB/	8.b\L	8.dd\L	.	.	8g\	8dd\
8GG/J	.	.	.	.	8g\J	8dd\J
.	(32cc\LL	32ee\LL	.	.	.	.
.	32dd\JJJ)	32ff\JJJ	.	.	.	.
=35	=35	=35	=35	=35	=35	=35
!	!LO:TX:a:t=P:problem:mixed beam	!LO:TX:a:t=P:problem:mixed beam	!	!	!	!
16C/LL	16cc\LL	16ee\LL	1ryy	1ryy	4cc\	4ee\
32C/L	32c/L	32c/L	.	.	.	.
32D/JJJ	32d/JJJ	32d/JJJ	.	.	.	.
16E\LL	16e/LL	16e/LL	.	.	.	.
32E\L	32e/L	32e/L	.	.	.	.
32F\JJJ	32f/JJJ	32f/JJJ	.	.	.	.
16G\LL	16g/LL	16g/LL	.	.	4r	4r
32E\L	32e/L	32e/L	.	.	.	.
!	!LO:SIC:t=custos na końcu linijki:cc	!	!	!	!	!
32F\JJJ	32f/JJJ	32f/JJJ	.	.	.	.
!	!LO:LB:g=original	!	!	!	!	!
16G\LL	16g/LL	16g/LL	.	.	.	.
32A\L	32a/L	32a/L	.	.	.	.
32B\JJJ	32b/JJJ	32b/JJJ	.	.	.	.
!LO:TX:a:t=P:problem:mixed beam	!	!	!	!	!	!
8c\L	8cc\L	16cc\LL	.	.	8cc\L	8cc\L
.	.	16gg\	.	.	.	.
8C/	8ee\J	16ee\	.	.	8cc\	8cc\
.	.	16cc\JJ	.	.	.	.
8C/	4ffM\	4aa\	.	.	8cc\	8cc\
8C/J	.	.	.	.	8cc\J	8cc\J
!LO:LB:g=original	!	!	!	!	!	!
=36	=36	=36	=36	=36	=36	=36
8C/L	8ee\L	16gg\LL	1ryy	1ryy	8cc\L	8cc\L
.	.	16gg\	.	.	.	.
8C/	8ee\J	16ee\	.	.	8cc\	8cc\
.	.	16cc\JJ	.	.	.	.
8GG/	4dd\	4ff\	.	.	8g\	8dd\
8GG/J	.	.	.	.	8g\J	8dd\J
8C/L	8cc\L	16ee\LL	.	.	8cc\L	8cc\L
.	.	16gg\	.	.	.	.
8C/	8ee\J	16ee\	.	.	8cc\	8cc\
.	.	16cc\JJ	.	.	.	.
8C/	4ff\	4aa\	.	.	8cc\	8cc\
8C/J	.	.	.	.	8cc\J	8cc\J
!	!	!	!	!	!	!LO:LB:g=original
=37	=37	=37	=37	=37	=37	=37
8C/L	8ee\L	16gg\LL	1ryy	1ryy	8cc\L	8cc\L
.	.	16gg\	.	.	.	.
8C/	8ee\J	16ee\	.	.	8cc\	8cc\
.	.	16cc\JJ	.	.	.	.
8GG/	4dd\	4ffM\	.	.	8g\	8dd\
8GG/J	.	.	.	.	8g\J	8dd\J
!LO:TX:a:t=P:problem:mixed beam	!	!	!	!	!	!
8C\L	8cc\L	8ee\L	.	.	8cc\L	8ee\L
8E\	8ee\	8ccc\	.	.	8cc\	8ee\
8G\	8b\	8dd\	.	.	8g\	8dd\
8GG/J	8dd\J	8bb\J	.	.	8g\J	8dd\J
=38	=38	=38	=38	=38	=38	=38
!	!LO:TX:a:t=P:problem:mixed beam	!	!	!	!LO:TX:a:t=P:problem:mixed beam	!
8C/L	8ee\L	8ccc\L	1ryy	1ryy	8cc\L	8ee\L
8C/	8e/	8cc\	.	.	8e/	8cc\
8C/	8e/	8cc\	.	.	8e/	8cc\
8C/J	8e/J	8cc\J	.	.	8e/J	8cc\J
4C/	4e/	4cc\	.	.	4e/	4cc\
4r	4r	4r	.	.	4r	4r
==	==	==	==	==	==	==
*-	*-	*-	*-	*-	*-	*-
!!!system-decoration: [(g1)][(g2)][(g3)]g4
!!!RDF**kern: >=above
!!!RDF**kern: <= below
!!!ENC:Anna Matuszewska
!!!END:2020-10-23
!!!ENC: Marcin Jachim
!!!END: 2020-05-22
